X:1
T:Tempe, 87.87.77.87
T:Tempe, 87.87.77.87
T:Lewis Edgar Jones (1865-1936)
T:Public Domain Courtesy of the Cyber Hymnal™
C:Lewis Edgar Jones (1865-1936)
Z:Public Domain
Z:Courtesy of the Cyber Hymnal™
%%score 1 ( 2 3 )
L:1/8
Q:1/4=95
M:4/4
K:Bb
V:1 treble 
V:2 bass 
V:3 bass 
V:1
 [DF]>[^C=E] [DF]>[DB] [_EA]2 [Ed]2 | [DB]4 [DF]4 | [EA]>[EG] [EA]>[EB] [Ec]2 [EA]2 | [DB]6 z2 | %4
 [DF]>[^C=E] [DF]>[DB] [_EA]2 [Ed]2 | [DB]4 [DF]2 [DB]>[Ge] | [Fd]2 [Ec]2 [EG]2 [EA]2 | %7
 [DB]6 [DF]>[DB] | [Fd]4- [Fd][Ec] [DB]>[Ge] | [Fd]6 [Ge]>[Fd] | [Ec]4- [Ec][DB] [CA]>[Ec] | %11
 [DB]6 [DF]>[DF] | [DB]4- [DB][Fd] [Ec]>[_AB] | [GB]4 [Ge]2 [Ge]>[Ge] | [Fd]3 [DB] [DB]2 [EA]2 | %15
 [DB]6 |] %16
V:2
 [B,,B,]>[B,,B,] [B,,B,]>[B,,B,] F,2 [F,A,]2 | [B,,B,]4 [B,,B,]4 | F,>[F,A,] F,>F, [F,A,]2 F,2 | %3
 [B,,F,]6 z2 | [B,,B,]>[B,,B,] [B,,B,]>[B,,B,] F,2 [F,A,]2 | [B,,B,]4 [B,,B,]2 [B,,B,]>[B,,B,] | %6
 [F,B,]2 [F,A,]2 F,2 F,2 | [B,,F,]6 z2 | ([B,,B,]>[B,,B,][B,,B,]>[B,,B,] [B,,B,]2) z2 | %9
 ([B,,B,]>[B,,B,][D,B,]>[F,B,] B,2) z2 | ([F,A,]>[F,A,][F,A,]>[F,A,] [F,A,]2) z2 | %11
 B,3/2 ([F,B,]<[D,B,][F,B,]/ [B,,B,]2) [B,,B,]>[B,,B,] | B,>B, B,>B, B,B, B,>B, | %13
 ([E,B,]>[E,B,][E,B,]>[E,B,]) ([E,B,][E,B,]) z2 | [F,B,]>[F,B,] [F,B,]F, F,2 F,2 | [B,,F,]6 |] %16
V:3
 x4 F,2 x2 | x8 | F,3/2F,>F, x3/2 F,2 x | x8 | x4 F,2 x2 | x8 | x4 F,2 F,2 | x8 | x8 | x4 B,2 x2 | %10
 x8 | B,3/2 x13/2 | (B,>B, B,>B, B,)B, B,>B, | x8 | x3 F, F,2 F,2 | x6 |] %16

